icons/line/beaker.svg

<svg width="24" height="24" viewBox="0 0 24 24" fill="none" xmlns="http://www.w3.org/2000/svg">
<path d="M9 4V11L5.44444 15L3.95887 16.6713C2.81238 17.9611 3.72799 20 5.45369 20H18.5463C20.272 20 21.1876 17.9611 20.0411 16.6713L18.5556 15L15 11V4M9 4H15M9 4H8M15 4H16" stroke="currentColor" stroke-width="2" stroke-linecap="round" stroke-linejoin="round"/>
</svg>

<svg width="24" height="24" fill="none" xmlns="http://www.w3.org/2000/svg"><path d="M9 4v7l-3.556 4-1.485 1.671C2.812 17.961 3.728 20 5.454 20h13.092c1.726 0 2.642-2.039 1.495-3.329L18.556 15 15 11V4M9 4h6M9 4H8m7 0h1" stroke="currentColor" stroke-width="2" stroke-linecap="round" stroke-linejoin="round"/></svg>
